X: 1796
T: Pegleg Hornpipe
B: australian traditional tunes wiki
M:4/4
L:1/8
R: Crooked Hornpipe
Q: 1/4=100
K:G
V:1 
|:"G"B>G B>d B>G B>d|\
B>d g>f a>g f>e d>B|\
"C"c>e c>A c>e c>A|1"D7"F2D2D2d2:|2"D7"D2G2G2d2||!
|:"G"d>g B>g d>g B>g|(3ggf a>g f>e d>B|"C"c>e A>e c>e A>e|1"D7"a>f b>a g>f e>d:|2"D7"D2F2"G"G4||
% abcbook-tune_id 6342d53adcfe9c6eec84a54e


% abcbook-boost 0
% abcbook-tablature 
% abcbook-transpose 
% abcbook-lastupdated 1665324384444
% abcbook-soundfonts 
% abcbook-repeats 1
% NFF Book 2010

